X:291
T:Reel 291
M:4/4
K:Gmaj
L:1/8
BA|GBGF GABc|dBec d2A2|GBGF GABc|dBgB d2dB|GBGF GABc|dBge dBGA|BAGB ABAg| (3fed ec d2||fe|defa g2gd|dgeg agag|fefg fedf|eaag fage|defa gfge|dBgB B2AG|dBcA BGAG|EDEF G2|
